X: 1
T: the First Edition (Addition)
C: Ron Wallace 1996
R: jig
Z: 2012 John Chambers <jc:trillian.mit.edu>
M: 6/8
L: 1/8
K: Gm
BA |\
"Gm"G2g ^f2g | gfd c2f | "F"A2G F2f | fag "Dm"fBA |\
"Gm"Ggg g^fg | "Eb"bag "F"f2e | "Gm"dcB "D7"F2^f | "Gm"g2G G :|
|: Bc |\
"Gm"dg^f gba | gBc dcB | "F"AFF Aff | fag "Dm"fBc |\
"Gm"dgg g^fg | "Eb"bag "F"f2e | "Gm"dcB "D7"F2^f | "Gm"g2G G :|
